!!!COM: Bach, Johann Sebastian
!!!CDT: 1685/3//-1750/7/28/
!!!OTL@@DE: Wie schoen leuchtet der Morgenstern
!!!OTL@EN: How bright appears the morning star
!!!AGN: 4-Part Chorale
!!!SCT: BH 323
!!!SCT: BWV 172
**harm	**root	**kern	**kern	**kern	**kern
!	!	!bass	!tenor	!alto	!soprno
*	*Iorgan	*Iorgan	*Iorgan	*Iorgan	*Iorgan
*M4/4	*M4/4	*M4/4	*M4/4	*M4/4	*M4/4
*met(c)	*met(c)	*met(c)	*met(c)	*met(c)	*met(c)
*MM56	*MM56	*MM56	*MM56	*MM56	*MM56
*k[f#c#g#d#]	*k[f#c#g#d#]	*k[f#c#g#d#]	*k[f#c#g#d#]	*k[f#c#g#d#]	*k[f#c#g#d#]
*E:	*E:	*E:	*E:	*E:	*E:
*>[A,A,B]	*>[A,A,B]	*>[A,A,B]	*>[A,A,B]	*>[A,A,B]	*>[A,A,B]
*>A	*>A	*>A	*>A	*>A	*>A
I	4FF	4E	4G#	4B	4e
=1	=1	=1	=1	=1	=1
Vb	4CC	4D#	4F#	4B	8b
.	.	.	.	.	8a
I	8FF	8E	8E	4B	8g#
Vb	8CC	8D#	8F#	.	8f#
vi	4DD	4C#	8G#	8c#	4e
.	.	.	8A	8d#	.
Ib	4FF	4GG#	4B	4e	4b
=2	=2	=2	=2	=2	=2
IV	4BB-	8AA	8B	4e	4cc#
.	.	8BB	16A	.	.
.	.	.	16G#	.	.
IVb	4BB-	8C#	8A	4e	4cc#
.	.	8D#	8A	.	.
I;	4FF;	4E;	4G#;	4e;	4b;
Vb	4CC	4D#	4B	4f#	4b
=3	=3	=3	=3	=3	=3
vib	4DD	4E	4B	4g#	4cc#
v/iii	4EE	4F#	4A#	4f#	4dd#
Ib	8FF	8G#	8B	8e	4ee
V7b/V	8GG	8A#	8c#	8f#	.
V	8CC	8B	8d#	4f#	4dd#
Vb	8CC	8D#	8F#	.	.
=4	=4	=4	=4	=4	=4
vib	4DD	8E	8G#	4e	4cc#
.	.	8C#	8c#	.	.
V7/V	4GG	4F#	4A#	4e	4cc#
V;	4CC;	4BB;	4B;	4d#;	4b;
I	4FF	4E	4B	4e	4g#
=5	=5	=5	=5	=5	=5
IV	4BB-	4AA	8A	4e	4cc#
.	.	.	8G#	.	.
V	4CC	4BB	4F#	4d#	4b
IVb	8BB-	8C#	8c#	8e	4a
V7b	8CC	8D#	8B	8f#	.
I	4FF	8E	4B	4e	4g#
.	.	8AA	.	.	.
=6	=6	=6	=6	=6	=6
V	2CC	2BB	2B	4e	2f#
.	.	.	.	4d#	.
I;	4FF;	4EE;	4B;	4e;	4e;
=:|!	=:|!	=:|!	=:|!	=:|!	=:|!
*>B	*>B	*>B	*>B	*>B	*>B
r	4r	4r	4r	4r	4r
=7	=7	=7	=7	=7	=7
Vb	2CC	2D#	2B	2f#	2b
I;	2FF;	2E;	2B;	2g#;	2g#;
=8	=8	=8	=8	=8	=8
V	2CC	2BB	2B	2f#	2b
I;	2FF;	2EE;	2B;	2e;	2g#;
!!linebreak: 2
=9	=9	=9	=9	=9	=9
I	4FF	8EE	4B	4e	4g#
.	.	8FF#	.	.	.
Ib	4FF	8GG#	4B	4e	4g#
.	.	8AA	.	.	.
V	4CC	8BB	4B	8d#	4f#
.	.	8C#	.	8c#	.
Vb	4CC	8D#	8B	4B	4f#
.	.	8BB	8A	.	.
=10	=10	=10	=10	=10	=10
I	4FF	8E	8G#	4B	4g#
.	.	8F#	8A	.	.
Ib	4FF	8G#	4B	8B	4g#
.	.	8A	.	8c#	.
V	4CC	8B	4B	4d#	4f#
.	.	8A	.	.	.
Vc	4CC	8G#	4B	4d#	4f#
.	.	8F#	.	.	.
=11	=11	=11	=11	=11	=11
I	4FF	8E	4B	4e	4g#
.	.	8D#	.	.	.
vi	4DD	8C#	4c#	4e	4g#
.	.	8BB	.	.	.
ii7b	4GG	8AA	4c#	4e	2f#
.	.	8FF#	.	.	.
V	4CC	4BB	8B	4d#	.
.	.	.	8A	.	.
=12	=12	=12	=12	=12	=12
I;	2FF;	2EE;	2G#;	2e;	2e;
vi	4DD	8CC#	8c#	4g#	4ee
.	.	8EE	8B	.	.
viiob	4EE	8FF#	4A	4f#	4dd#
.	.	8GG#	.	.	.
=13	=13	=13	=13	=13	=13
IV	4BB-	4AA	8A	4e	4cc#
.	.	.	8G#	.	.
V	4CC	4BB	4F#	4d#	4b
IVb	4BB-	8C#	8E	4c#	4a
.	.	8D#	8F#	.	.
I	8FF	8E	8G#	4B	4g#
Ib	8FF	8GG#	8B	.	.
=14	=14	=14	=14	=14	=14
iib	4GG	8AA	8.A	4c#	2f#
.	.	8FF#	.	.	.
.	.	.	16G#	.	.
V	4CC	4BB	4F#	4B	.
I;	4FF;	4EE;	4G#;	4B;	4e;
==	==	==	==	==	==
*-	*-	*-	*-	*-	*-
!!chor2scor: -l 2 -o %b.pmx
!!!YEC: Copyright 1994, David Huron
!!!YEC: Changes/Additions 2001 by Craig Stuart Sapp
!!!YEN: United States of America
!!!SMA: 371 Bach Chorales, edited by Ludwig Erk, C.F. Peters
!!!PDT: 1850, 1865
!!!ONB: Harmony and Root analysis done manually
